!!!!SEGMENT: pl-kc--40102-iii-1-saf--001-029_zielenski-mikolaj--offertoria-totius-anni-in-festo-ss-apostolorum-philippi-et-jacobi-in-omnem-terram.krn
!!!cenid: 16xx:1507
!!!COM: Zieleński, Mikołaj
!!!COM-rismid: pe30013481
!!!CDT:
!!!CNT: Polish
!!!GTL: Offertoria totius anni
!!!OTL: In festo SS. Apostolorum Philippi et Jacobi/In omnem terram
!!!OMV: 029
!!!PDT: 1611
!!!AGN:
!!!SMS-siglum: PL-Kc
!!!SMS-shelfmark: 40102 III/1 Saf.
!!!SMS-shelfwork: 001-029 G
!!!SMS-variant:
!!!SMS-altvar:
!!!NIFC-rismid: 990069886
!!!URL-scan: https://cyfrowe.mnk.pl/dlibra/publication/24235/edition/23926/content?ref=desc
!!!ONB-nifc: UWAGA: str. 27-28. Uwaga: W xml metrum 2/1 do źródłowego C| i odpowiednio 3/1 do 3/2
!!!key:
**kern	**kern	**kern	**kern
*group1	*group1	*group1	*group1
*part4	*part3	*part2	*part1
*staff4	*staff3	*staff2	*staff1
*I""Organo	*I	*I	*
*Iorgan	*Iorgan	*Iorgan	*Iorgan
*ICklav	*ICklav	*ICklav	*ICklav
*clefF4	*clefC1	*clefF3	*clefG2
*k[b-]	*k[b-]	*k[b-]	*k[b-]
*F:	*F:	*F:	*F:
*M2/1	*M2/1	*M2/1	*M2/1
=1	=1	=1	=1
!LO:TX:t=P:problem:all/middle:global	!LO:TX:t=P:problem:all/middle:global	!LO:TX:t=P:problem:all/middle:global	!LO:TX:t=P:problem:all/middle:global
!LO:TX:t=P:problem:all\middle:global	!LO:TX:t=P:problem:all\middle:global	!LO:TX:t=P:problem:all\middle:global	!LO:TX:t=P:problem:all\middle:global
!	!	!LO:TX:a:t=In omnem terram.	!LO:TX:a:t=In feſto SS. A poſto lorum Philippi & Jacobi. A S.
00r	00r	1F	1cc
.	.	2F/	2cc\
.	.	2D/	2dd\
=2-	=2-	=2-	=2-
.	.	1C	1ee-X
.	.	2BB-/	1dd
.	.	4B-\	.
.	.	4B-\	.
=3	=3	=3	=3
00r	00r	2B-\	4b-/
.	.	.	4b-/
.	.	4BB-/	2b-/
.	.	4C/	.
.	.	4D/	4f/
.	.	4E/	4g/
.	.	4F/	4a/
.	.	8E-X/	4b-/
.	.	8D/	.
=4-	=4-	=4-	=4-
.	.	4C/	4cc\
.	.	4D/	8b-/
.	.	.	8a/
.	.	4E-X/	4g/
.	.	4F/	4a/
.	.	2G\	4b-/
.	.	.	4cc\
.	.	4D/	[y2dd\
.	.	4D/	.
=5	=5	=5	=5
!	!	!	!LO:N:xstem:cue
0r	0r	2.E-X/	4dd\]
.	.	.	4cc\
.	.	.	2.cc\
.	.	8D/	.
.	.	8C/	.
.	.	1G	.
!	!	!	!LO:N:acc=x:global
.	.	.	8bn/
.	.	.	8a/
.	.	.	2b/
=6-	=6-	=6-	=6-
1C	1g	1C	1cc
2C/	2g/	1r	1r
2AA/	2a\	.	.
=7	=7	=7	=7
1GG	1b-	00r	00r
2FF/	1a	.	.
4F\	.	.	.
4F\	.	.	.
=8-	=8-	=8-	=8-
2F\	4f/	.	.
.	4f/	.	.
4FF/	2f/	.	.
4GG/	.	.	.
4AA/	4c/	.	.
4BB-/	4d/	.	.
4C/	4e/	.	.
8BB-/	4f/	.	.
8AA/	.	.	.
=9	=9	=9	=9
4GG/	4g/	00r	00r
4AA/	8f/	.	.
.	8e/	.	.
4BB-/	4d/	.	.
4C/	4e/	.	.
2.D/	4f/	.	.
.	4g/	.	.
.	4a\	.	.
8C/	4b-\	.	.
8BB-/	.	.	.
=10-	=10-	=10-	=10-
4AA/	2.cc\	.	.
4BB-/	.	.	.
2C/	.	.	.
.	4b-\	.	.
2FF/	2a\	.	.
2C/	[y2g/	.	.
=11	=11	=11	=11
!	!LO:N:xstem:cue	!	!
2.AA/	4g/]	1r	1r
.	8f/	.	.
.	8e/	.	.
.	2.f/	.	.
8GG/	.	.	.
8FF/	.	.	.
1C	.	2r	2r
.	8e/	.	.
.	8d/	.	.
.	2e/	2C/	2cc\
=12-	=12-	=12-	=12-
1FF	1f	2C/	2cc\
.	.	2F/	2a/
2r	2r	4BB-/	2.b-/
.	.	4C/	.
2BB-/	2dd\	4D/	.
.	.	4E/	4cc\
=13	=13	=13	=13
2BB-/	2dd\	4F/	1dd
.	.	4D/	.
!	!LO:N:acc=x:global	!	!
2GG/	2bn\	2G\	.
2.C/	1cc	2G\	2g/
.	.	2E/	2cc\
4BB-/	.	.	.
=14-	=14-	=14-	=14-
2AA/	1cc	2E/	2cc\
2FF/	.	2F/	2ff\
2r	2r	2.C/	2.ee\
2C/	2cc\	.	.
.	.	4D/	4dd\
=15	=15	=15	=15
2C/	2cc\	4E/	4cc\
.	.	4F/	4b-/
2BB-/	2g/	2.G\	2dd\
1AA	1a	.	2cc\
!	!	!LO:N:acc=x	!
.	.	8F#X/	.
.	.	8E/	.
.	.	2F#/	2cc\
=16-	=16-	=16-	=16-
1GG	1b-	2G\	2b-/
.	.	4G\	4dd\
.	.	4G\	4dd\
1r	1r	2G\	2dd\
.	.	2B-\	2dd\
=17	=17	=17	=17
1r	1r	4F/	4cc\
.	.	4F/	4cc\
.	.	2c\	2cc\
2r	2r	1F	1cc
4FF/	4a\	.	.
4FF/	4a\	.	.
=18-	=18-	=18-	=18-
2FF/	2a\	0r	0r
2C/	2g/	.	.
4GG/	4b-\	.	.
4GG/	4b-\	.	.
2D/	2a\	.	.
=19	=19	=19	=19
1GG	1g	2r	2r
.	.	4G\	4dd\
.	.	4G\	4dd\
1r	1r	2C/	2ee\
.	.	2F/	2ff\
=20-	=20-	=20-	=20-
1r	1r	4G\	4dd\
.	.	4C/	4ee-X\
.	.	2G\	2dd\
2r	2r	2C/	2cc\
4C/	4cc\	4C/	4ee-\
4C/	4cc\	4C/	4ee-\
=21	=21	=21	=21
2FF/	2cc\	2C/	2ff\
2BB-/	2b-\	2D/	2dd\
4GG/	4b-\	4D/	4dd\
4GG/	4dd\	4D/	4dd\
2D/	2dd\	2D/	2ff\
=22-	=22-	=22-	=22-
2AA/	2cc\	2E/	2ee\
2AA/	2cc\	2C/	2ff\
2BB-/	2b-\	2D/	2dd\
2GG/	2b-\	2D/	2dd\
!LO:SIC:v:t=custos DD	!LO:SIC:v:t=custos a	!LO:SIC:v:t=custos D	!LO:SIC:v:t=custos dd
!LO:LB:g=original	!LO:LB:g=original	!LO:LB:g=original	!LO:LB:g=original
=23	=23	=23	=23
1DD	1a	1D	2.dd\
.	.	.	4cc\
!	!	!	!LO:N:acc=x
2GG/	2g/	2D/	2bn/
2CC/	2g/	2C/	.2cc\
=24-	=24-	=24-	=24-
1GG	1g	1D	.
!	!	!	!LO:N:acc=x
.	.	.	8bn/
.	.	.	8a/
.	.	.	2b/
2CC/	2.g/	1C	1cc
2C/	.	.	.
.	4g/	.	.
=25	=25	=25	=25
2AA/	2a\	0r	0r
!	!LO:N:acc=x	!	!
2D/	2f#X/	.	.
4GG/	4g/	.	.
2G\	2g/	.	.
4E-X\	4g/	.	.
=26-	=26-	=26-	=26-
1D	1f#	1r	1r
1C	1e	2r	2r
.	.	2c\	2ee\
=27	=27	=27	=27
0r	0r	2A\	2ff\
.	.	2B-\	2dd\
.	.	4F/	4cc\
.	.	2c\	2cc\
.	.	4c\	4cc\
=28-	=28-	=28-	=28-
1r	1r	1A	1cc
!	!	!	!LO:N:acc=x
2r	2r	1G	1bn
2GG/	2dd\	.	.
=29	=29	=29	=29
2E-X\	2b-\	0r	0r
2E-\	2cc\	.	.
4D/	4dd\	.	.
!LO:N:acc=x	!	!	!
2BBn	2dd\	.	.
4C/	4cc\	.	.
=30-	=30-	=30-	=30-
1D	4.b-\	1r	1r
.	16a\	.	.
.	16g\	.	.
.	2a\	.	.
1GG	1g	2r	2r
.	.	2G\	2dd\
=31	=31	=31	=31
1r	1r	2D/	2ff\
.	.	2C/	2dd\
2r	2r	1F	1cc
2FF/	4r	.	.
.	4cc\	.	.
=32-	=32-	=32-	=32-
2F\	2cc\	0r	0r
2D/	2dd\	.	.
2C/	2.ee-X\	.	.
[<2E-X\	.	.	.
.	[<4b-\	.	.
=33	=33	=33	=33
2E-\]	4b-\]	0r	0r
.	4b-\	.	.
2BB-/	2.dd\	.	.
2.D/	.	.	.
.	4cc\	.	.
.	2.b-\	.	.
4E-X\	.	.	.
=34-	=34-	=34-	=34-
1F	.	0r	0r
.	8f/	.	.
.	8e/	.	.
.	2a\	.	.
2.BB-/	2b-\	.	.
.	2dd\	.	.
4BB-/	.	.	.
=35	=35	=35	=35
4C/	4cc\	1r	1r
4D/	4a\	.	.
2GG/	2b-\	.	.
1D	1a	2r	2r
.	.	2d\	2ff\
=36	=36	=36	=36
0r	0r	4c\	4ee\
!	!	!	!LO:N:acc=x
.	.	4A\	4cc#X\
.	.	2B-\	2dd\
!	!	!	!LO:N:acc=x
.	.	2A\	2cc#X\
.	.	2E/	[y2ee\
=37	=37	=37	=37
!	!	!	!LO:N:xstem:cue
00r	00r	2.F/	4ee\]
.	.	.	4dd\
.	.	.	2.dd\
.	.	4G\	.
.	.	1A	.
!	!	!	!LO:N:acc=x
.	.	.	8cc#X\
.	.	.	8b-\
.	.	.	2cc#\
=38-	=38-	=38-	=38-
.	.	2.D/	2dd\
.	.	.	2ff\
.	.	4D/	.
.	.	2A\	2ee\
.	.	2B-\	2dd\
=39	=39	=39	=39
00r	00r	4F/	4cc\
.	.	2D/	2dd\
.	.	4E-X/	4b-/
.	.	1C	1ee
=40-	=40-	=40-	=40-
.	.	2BB-/	2dd\
.	.	2B-\	2dd\
.	.	4B-\	4dd\
.	.	4A\	4cc\
.	.	4G\	4b-/
.	.	4F\	4a/
=41	=41	=41	=41
!LO:TX:b:t=Partitura Nicolai Zielenski.	!	!	!
0r	0r	2.E-X/	2g/
.	.	.	2.ee\
.	.	4D/	.
.	.	2C/	.
.	.	.	4dd\
.	.	2C/	2cc.\
=42-	=42-	=42-	=42-
1r	1r	1G	.
!	!	!	!LO:N:acc=x
.	.	.	8bn/
.	.	.	8a/
.	.	.	2b/
2r	2r	1C	1cc
2C/	2cc\	.	.
=43	=43	=43	=43
2AA/	2cc\	1r	1r
2BB-/	2b-\	.	.
2.FF/	2.a\	2r	2r
.	.	2C/	2ff\
4FF/	4cc\	.	.
=44-	=44-	=44-	=44-
2C/	2cc\	2C/	2ee\
2GG/	2dd\	2G\	2gg\
4D/	4dd\	4D/	4ff\
2BB-/	2dd\	2D/	2ff\
4C/	4cc\	4G\	4ee-X\
=45	=45	=45	=45
*lig	*	*	*
1G	4b-\	2G\	2dd\
.	4g/	.	.
.	2.cc\	2C/	2ee-X\
1GG	.	1D	1dd
!	!LO:N:acc=x	!	!
.	8bn\	.	.
.	8a\	.	.
.	2b\	.	.
*Xlig	*	*	*
=46-	=46-	=46-	=46-
2.C/	2cc\	1C	1ee-
.	2g/	.	.
4C/	.	.	.
!LO:TX:b:t=D	!	!	!
2AA/	2cc\	1r	1r
2FF/	2a\	.	.
!LO:SIC:v:t=custos C	!LO:SIC:v:t=custos g	!LO:SIC:v:t=custos F	!LO:SIC:v:t=custos cc
!LO:PB:g=original	!LO:PB:g=original	!LO:PB:g=original	!LO:PB:g=original
=47	=47	=47	=47
1C	1g	1r	1r
2.FF/	2.a\	2r	2r
.	.	2F/	2cc\
4F\	4a\	.	.
=48-	=48-	=48-	=48-
2D/	2a\	2F/	2ff\
2BB-/	2b-\	2F/	2dd\
2F\	2.a\	1F	2.cc\
2FF/	.	.	.
!	!LO:N:acc=x	!	!
.	4bn\	.	4dd\
=49	=49	=49	=49
2.C/	1cc	2E/	2ee\
.	.	4E/	2.gg\
4BB-/	.	4D/	.
2AA/	2cc\	4E/	.
.	.	2C/	4ff\
2FF/	2cc\	.	1ff\
.	.	4D/	.
=50-	=50-	=50-	=50-
0C	0cc	4E/	.
.	.	4F/	.
.	.	1G	4ee\
.	.	.	4dd\
.	.	.	2ee\
.	.	2G\	2ee\
=51-	=51-	=51-	=51-
!	!LO:TX:t=P:problem:0\right	!LO:TX:t=P:problem:0\right	!LO:TX:t=P:problem:0\right
[0FFl	[0ccl	[0Fl	[0ffl
=52-	=52-	=52-	=52-
0FF]	0cc]	0F]	0ff]
==	==	==	==
*-	*-	*-	*-
!!!system-decoration: g1
!!!RDF**kern: > = above
!!!RDF**kern: < = below
!!!RDF**kern: l = terminal long
!!!ENC: Anastazja Marusiak
!!!END: 2021-12-13
!!!EED: Jędrzej Mróz
!!!EST: 2021-12-20
